X:122
T:Chuir I Gl\`un Air a' Bhodach
R:Reel
B:The Athole Collection
M:C|
L:1/8
K:A Minor
A>B d2 Bde2|A>B d2 e>dBG|ABd<d B>d e2|dBB2 A>BAG:|
e>^f g2 f>g a2|e>^f g2 a>gfd|e>^f g2 f>g a2|e>d B2 A>GA>G|
e>^f g2 f>g a2|e>^f g2 agfd|e>^fge fd e2|d>B B2 A>GAG||

